dist/images/Image1.svg

<svg width="120" height="96" viewBox="0 0 120 96" fill="none" xmlns="http://www.w3.org/2000/svg">
<g clip-path="url(#clip0)">
<path d="M52.3895 14.397H17.0513L20.9777 13.4153L51.4079 13.0881" stroke="black"/>
<path d="M11.5868 68.6648L2 30.7573H85.1103L77.2502 68.38C76.5725 71.6242 73.7124 73.9485 70.3982 73.9485H18.3731C15.1682 73.9485 12.3726 71.7719 11.5868 68.6648Z" fill="url(#paint0_linear)" stroke="black" stroke-width="2"/>
<path d="M3.30859 77.875H74.8636C77.6421 77.875 80.0572 75.9673 80.7005 73.2643L92.0614 25.5317C93.5237 19.3877 99.0132 15.0515 105.329 15.0515H111.395C111.914 15.0515 112.435 15.1384 112.926 15.3053V15.3053C115.656 16.232 115.412 20.2139 112.57 20.6963V20.6963C112.31 20.7405 112.046 20.7627 111.781 20.7627H108.014" stroke="black" stroke-width="2"/>
<path d="M15.7427 60.2059V31.0846L16.0699 28.7941L51.0809 16.6875L52.3897 61.1875L15.7427 60.2059Z" fill="white"/>
<path d="M52.7155 14.3971L57.8994 13.5786C58.4623 13.4897 58.9855 13.8885 59.0491 14.4548L63.5176 54.2726C63.5561 54.6162 63.4145 54.9553 63.1429 55.1694L54.6788 61.8419M63.5796 11.3431L64.7713 5.22732C64.9792 4.16055 66.0009 3.45503 67.0721 3.63857L82.3905 6.26318C83.5147 6.45581 84.2505 7.5482 84.0064 8.66242L73.3646 57.243C73.1555 58.1976 72.2871 58.8613 71.3111 58.8125L59.9141 58.2426M43.2266 0V0C47.3389 0.532046 50.3356 4.15971 50.0817 8.29855L50.0109 9.45261" stroke="black" stroke-width="2"/>
<path d="M15.0871 37.3014L14.1465 61.1296C14.1241 61.6969 14.578 62.169 15.1457 62.169H37.6643H52.6748C53.2358 62.169 53.6871 61.7076 53.6745 61.1467L52.6297 14.397H17.0503L15.0871 37.3014Z" stroke="black" stroke-width="2"/>
<circle cx="25.2305" cy="83.4375" r="4.0625" stroke="black" stroke-width="3"/>
<circle cx="60.5698" cy="83.4375" r="4.0625" stroke="black" stroke-width="3"/>
<path d="M5.92627 32.0662H14.4336" stroke="white" stroke-width="2"/>
<path d="M61.5513 32.0662H88.3822" stroke="white" stroke-width="2"/>
<circle cx="24.9028" cy="18.3237" r="2.11765" fill="white" stroke="black"/>
<circle cx="43.8823" cy="18.3235" r="2.11765" stroke="black"/>
<path d="M24.9062 18.3237V11.1812C24.9062 6.09036 29.0332 1.96338 34.1241 1.96338V1.96338V1.96338C39.5145 1.96338 43.8842 6.33312 43.8842 11.7235V18.3237" stroke="black" stroke-width="2"/>
<path d="M27.5234 28.1398V24.2134L30.7955 26.6297L27.5234 28.1398Z" fill="#FB528D" stroke="#FB528D"/>
<path d="M45.8438 58.2426V54.3162L49.1158 56.7325L45.8438 58.2426Z" fill="#FB528D" stroke="#FB528D"/>
<path d="M30.7962 38.1701L34.1367 35.9927L33.9863 40.2555L30.7962 38.1701Z" fill="#FB528D" stroke="#FB528D"/>
<path d="M16.7232 23.8861L19.082 21.5957L18.9316 25.8586L16.7232 23.8861Z" fill="#FB528D" stroke="#FB528D"/>
<path d="M14.433 56.4936L17.7734 54.3162L17.623 58.579L14.433 56.4936Z" fill="#FB528D" stroke="#FB528D"/>
<path d="M29.4841 54.4957L31.4805 51.0439L33.2722 54.9149L29.4841 54.4957Z" fill="#FB528D" stroke="#FB528D"/>
<path d="M19.6677 43.3707L21.6641 39.9189L23.4557 43.7899L19.6677 43.3707Z" fill="#FB528D" stroke="#FB528D"/>
<path d="M45.8473 42.7164L47.8438 39.2646L49.6354 43.1356L45.8473 42.7164Z" fill="#FB528D" stroke="#FB528D"/>
<path d="M42.7828 29.269L41.4692 25.5042L45.5719 26.6716L42.7828 29.269Z" fill="#FB528D" stroke="#FB528D"/>
<path d="M58.2783 14.0698L53.043 15.0514L54.0246 60.8603L62.2047 54.6434L58.2783 14.0698Z" fill="white"/>
<rect x="105.398" y="17.0146" width="12.4338" height="3.92647" rx="1.96324" fill="black"/>
<path d="M55.0123 53.3403L53.6987 49.5754L57.8014 50.7429L55.0123 53.3403Z" fill="#FB528D" stroke="#FB528D"/>
<path d="M53.0462 21.1554L56.3867 18.978L56.2363 23.2409L53.0462 21.1554Z" fill="#FB528D" stroke="#FB528D"/>
<path d="M56.9726 36.1481L60.957 35.9927L58.6411 39.5747L56.9726 36.1481Z" fill="#FB528D" stroke="#FB528D"/>
<path d="M56.9688 76.5662L60.568 83.4375L64.8217 76.5662" stroke="black"/>
<path d="M18.3604 80.4927L25.5589 82.7831L19.6692 87.6912" stroke="black"/>
</g>
<defs>
<linearGradient id="paint0_linear" x1="43.5551" y1="30.7573" x2="43.5551" y2="73.9485" gradientUnits="userSpaceOnUse">
<stop stop-color="#1AA5BD"/>
<stop offset="1" stop-color="#188CAE"/>
</linearGradient>
<clipPath id="clip0">
<rect width="120" height="96" fill="white"/>
</clipPath>
</defs>
</svg>

<svg width="120" height="96" viewBox="0 0 120 96" fill="none" xmlns="http://www.w3.org/2000/svg"><g clip-path="url(#a)"><path d="M52.39 14.397H17.05l3.927-.982 30.43-.327" stroke="#000"/><path d="M11.587 68.665L2 30.757h83.11L77.25 68.38a7 7 0 0 1-6.852 5.569H18.373a7 7 0 0 1-6.786-5.284z" fill="url(#b)" stroke="#000" stroke-width="2"/><path d="M3.309 77.875h71.555a6 6 0 0 0 5.837-4.61l11.36-47.733a13.638 13.638 0 0 1 13.268-10.48h6.066c.519 0 1.04.086 1.531.253 2.73.927 2.486 4.909-.356 5.391-.26.044-.524.067-.789.067h-3.767" stroke="#000" stroke-width="2"/><path d="M15.743 60.206V31.085l.327-2.29 35.01-12.108 1.31 44.5-36.647-.981z" fill="#fff"/><path d="M52.715 14.397l5.184-.818a1 1 0 0 1 1.15.876l4.469 39.818a1 1 0 0 1-.375.896l-8.464 6.673m8.9-50.499l1.192-6.116a2 2 0 0 1 2.301-1.588l15.319 2.624a2 2 0 0 1 1.615 2.4l-10.641 48.58a2 2 0 0 1-2.054 1.57l-11.397-.57M43.227 0a7.881 7.881 0 0 1 6.855 8.299l-.071 1.154M15.087 37.301l-.94 23.829a1 1 0 0 0 .999 1.039h37.528a1 1 0 0 0 1-1.022l-1.044-46.75H17.05l-1.963 22.904z" stroke="#000" stroke-width="2"/><circle cx="25.23" cy="83.438" r="4.063" stroke="#000" stroke-width="3"/><circle cx="60.57" cy="83.438" r="4.063" stroke="#000" stroke-width="3"/><path d="M5.926 32.066h8.508M61.551 32.066h26.831" stroke="#fff" stroke-width="2"/><circle cx="24.903" cy="18.324" r="2.118" fill="#fff" stroke="#000"/><circle cx="43.882" cy="18.323" r="2.118" stroke="#000"/><path d="M24.906 18.324V11.18a9.218 9.218 0 0 1 9.218-9.218c5.39 0 9.76 4.37 9.76 9.76v6.6" stroke="#000" stroke-width="2"/><path d="M27.523 28.14v-3.927l3.273 2.417-3.273 1.51zM45.844 58.243v-3.927l3.272 2.416-3.272 1.51zM30.796 38.17l3.34-2.177-.15 4.262-3.19-2.085zM16.723 23.886l2.359-2.29-.15 4.263-2.209-1.973zM14.433 56.494l3.34-2.178-.15 4.263-3.19-2.085zM29.484 54.496l1.996-3.452 1.792 3.87-3.788-.418zM19.668 43.37l1.996-3.451 1.792 3.87-3.788-.418zM45.847 42.716l1.997-3.451 1.791 3.87-3.788-.419zM42.783 29.269l-1.314-3.765 4.103 1.168-2.79 2.597z" fill="#FB528D" stroke="#FB528D"/><path d="M58.278 14.07l-5.235.981.982 45.81 8.18-6.218-3.927-40.573z" fill="#fff"/><rect x="105.398" y="17.015" width="12.434" height="3.926" rx="1.963" fill="#000"/><path d="M55.012 53.34L53.7 49.575l4.102 1.168-2.789 2.597zM53.046 21.155l3.34-2.177-.15 4.263-3.19-2.086zM56.973 36.148l3.984-.155-2.316 3.582-1.668-3.427z" fill="#FB528D" stroke="#FB528D"/><path d="M56.969 76.566l3.599 6.871 4.254-6.87M18.36 80.493l7.199 2.29-5.89 4.908" stroke="#000"/></g><defs><linearGradient id="b" x1="43.555" y1="30.757" x2="43.555" y2="73.948" gradientUnits="userSpaceOnUse"><stop stop-color="#1AA5BD"/><stop offset="1" stop-color="#188CAE"/></linearGradient><clipPath id="a"><path fill="#fff" d="M0 0h120v96H0z"/></clipPath></defs></svg>
